!!!COM: Frescobaldi, Girolamo
!!!CDT: 1583///-1643
!!!ONM: No. 29
!!!OTL: No. 29: Canzon Quarta &agrave; 3 Due Canti e Basso
!!!OPR: Canzoni da sonare a una, due, tre et quattro, libro primo
!!!PPP: Venezia
!!!PDT: 1634
!!!URL: http://icking-music-archive.org/ByComposer/Frescobaldi.html
!!!ONB: Andrea Friggi, ed.
**kern	**kern	**kern	**kern
!Basso ad Organo	!Basso	!Canto Secondo	!Canto Primo
*staff4	*staff3	*staff2	*staff1
*clefF4	*clefF4	*clefG2	*clefG2
*Icello	*Icello	*Ivioln	*Ivioln
*k[]	*k[]	*k[]	*k[]
*met(C)	*met(C)	*met(C)	*met(C)
*M4/4	*M4/4	*M4/4	*M4/4
*MM120	*MM120	*MM120	*MM120
=1-	=1-	=1-	=1-
2.G\	1r	1r	4dd\
.	.	.	8b/L
.	.	.	8g/J
.	.	.	4dd\
4E\	.	.	8gg\L
.	.	.	8ff\J
=2	=2	=2	=2
4c\	1r	2r	4ee\
8B\L	.	.	8dd\L
8A\J	.	.	8cc\J
[2G\	.	4dd\	8b\L
.	.	.	8cc\J
.	.	8b/L	4dd\
.	.	8g/J	.
=3	=3	=3	=3
4G\]	1r	4dd\	2g/
4E\	.	8gg\L	.
.	.	8ff\J	.
2C/	.	4ee\	2cc\
.	.	8dd\L	.
.	.	8cc\J	.
=4	=4	=4	=4
4G\	4G\	4b\	4dd\
4E\	8E\L	4cc\	4ee\
.	8C\J	.	.
4G\	4G\	4b\	4dd\
4c\	8c\L	8ee\L	4g/
.	8B\J	8dd\J	.
=5	=5	=5	=5
2A\	4A\	4cc\	2a/
.	8G\L	8b/L	.
.	8F\J	8a/J	.
4E\	4E\	4g#/	4b\
8D/L	8D/L	4a/	4cc\
8C/J	8C/J	.	.
=6	=6	=6	=6
4D\	4D\	4a/	2b\
4E\	4E\	4g#/	.
2AA/	2AA/	2a/	2cc#\
=7	=7	=7	=7
2.G\	2r	1r	4dd\
.	.	.	8b/L
.	.	.	8g/J
.	4G\	.	4dd\
4E\	8E\L	.	8gg\L
.	8C\J	.	8ff\J
=8	=8	=8	=8
4c\	4c\	2r	4ee\
8B\L	8B\L	.	8dd\L
8A\J	8A\J	.	8cc\J
[2G\	2G\	4dd\	8b\L
.	.	.	8cc\J
.	.	8b/L	4dd\
.	.	8g/J	.
=9	=9	=9	=9
4G\]	4r	4dd\	4r
4C/	4C/	8gg\L	4ee\
.	.	8ff\J	.
4C/	4C/	4ee\	4ee\
4D\	4D\	8dd\L	4ff#\
.	.	8cc\J	.
=10	=10	=10	=10
4E\	4E\	4b\	4gg\
8D/L	8D/L	2cc\	8ff\L
8C/J	8C/J	.	8ee\J
2G\	4G\	.	4dd\
.	4GG/	4b\	4dd\
=11	=11	=11	=11
2C/	2C/	2cc\	2ee\
4c\	8c\L	2r	8ee\L
.	8c\	.	8ee\
8B\L	8B\	.	8dd\
8A\J	8A\J	.	8cc\J
=12	=12	=12	=12
4G\	4G\	8gg\L	4b\
.	.	8gg\	.
4A\	4A\	8ff\	4cc\
.	.	8ee\J	.
4B-\	8B-\L	4dd\	8dd\L
.	8B-\	.	8dd\
8A\L	8A\	4ee\	8cc\
8G\J	8G\J	.	8b\J
=13	=13	=13	=13
4F\	4F\	8ff\L	4a/
.	.	8ff\	.
4G\	4G\	8ee\	4b\
.	.	8dd\J	.
2C/	2C/	8ee\L	4.cc\
.	.	8ff\J	.
.	.	[4gg\	.
.	.	.	8b\
=14	=14	=14	=14
2D\	2D\	4gg\]	2a/
.	.	4ff#\	.
4G\	8G\L	2gg\	2b\
.	8G\	.	.
8F\L	8F\	.	.
8E\J	8E\J	.	.
=15	=15	=15	=15
4D\	4D\	2r	8dd\L
.	.	.	8dd\
4E\	4E\	.	8cc\
.	.	.	8b\J
4F\	4F\	8aa\L	4a/
.	.	8aa\	.
4G\	4G\	8gg\	4b\
.	.	8ff\J	.
=16	=16	=16	=16
4A\	8A\L	2ee\	8cc\L
.	8A\	.	8cc\
8G\L	8G\	.	8b\
8F\J	8F\J	.	8a\J
4E\	4E\	8ee\L	4g#/
.	.	8ee\	.
4F\	4F\	8dd\	[4a/
.	.	8cc\J	.
=17	=17	=17	=17
4D\	4D\	2b\	4a/]
4E\	4E\	.	4g#/
2AA/	8AA/L	2cc\	2a/
.	8AA/	.	.
.	8GG/	.	.
.	8FF/J	.	.
=18	=18	=18	=18
4EE/	4EE/	8gg\L	8ee\L
.	.	8gg\	8ee\
4FF/	4FF/	8ff\	8dd\
.	.	8ee\J	8cc\J
2GG/	2GG/	2dd\	[2b\
=19	=19	=19	=19
2.C/	2.C/	2ee\	2b\]
.	.	8ee\L	[2a/
.	.	8ee\	.
4D\	4D\	8dd\	.
.	.	8cc\J	.
=20	=20	=20	=20
1E	1E	2.b\	4a/]
.	.	.	8g/L
.	.	.	8f#/J
.	.	.	[2g/
.	.	4cc#\	.
=21	=21	=21	=21
1D	1D	1dd	2g/]
.	.	.	2f#/
=22	=22	=22	=22
1GG	1GG	1dd	1g
=23:|!	=23:|!	=23:|!	=23:|!
*M3/2	*M3/2	*M3/2	*M3/2
2r	2r	2r	2r
2C/	2C/	2cc\	2ee\
2G\	2G\	2b\	2dd\
=24	=24	=24	=24
1C	2.C/	2cc\	2.ee\
.	.	2gg\	.
.	4C/	.	4ee\
2D\	2D\	2ff#\	4dd\
.	.	.	4cc\
=25	=25	=25	=25
2GG/	2GG/	2.gg\	2.b\
2G\	2G\	.	.
.	.	4b\	4g/
2F\	2F\	4cc\	4a/
.	.	4dd\	4b\
=26	=26	=26	=26
2.E\	2.E\	2ee\	4cc\
.	.	.	4g/
.	.	2ee\	2cc\
4F\	4F\	.	.
2G\	2G\	2dd\	2b\
=27	=27	=27	=27
1.C	1.C	1.ee	1.cc
=28	=28	=28	=28
1c	1.r	4r	1.r
.	.	4cc\	.
.	.	4g/	.
.	.	4cc\	.
2G\	.	2b\	.
=29	=29	=29	=29
2C/	2r	2cc\	2r
2D\	2D\	4.ff\	2dd\
.	.	8gg\	.
2AA/	2A\	2ee\	2cc#\
=30	=30	=30	=30
2D\	2D\	2dd\	2dd\
2D\	2D\	2dd\	4.ff\
.	.	.	8gg\
2AA/	2AA/	2cc#\	2ee\
=31	=31	=31	=31
2D\	1D	1.dd	4r
.	.	.	4dd\
2D\	.	.	4a/
.	.	.	4dd\
2G\	2r	.	2b\
=32	=32	=32	=32
1C	4r	1.r	1cc
.	4c\	.	.
.	4G\	.	.
.	4c\	.	.
2G\	2B\	.	2r
=33	=33	=33	=33
2c\	2c\	2r	2r
2G\	2G\	4.b\	2gg\
.	.	8cc\	.
2D\	2D\	2a/	2ff#\
=34	=34	=34	=34
2GG/	2GG/	2b\	2gg\
2GG/	2GG/	2gg\	4.b\
.	.	.	8cc\
2D\	2D\	2ff#\	2a/
=35	=35	=35	=35
1.GG	1.GG	1.gg	1.b
=36	=36	=36	=36
2.G\	1.r	1.r	4.gg\
.	.	.	8ff\
.	.	.	4gg\
4F\	.	.	4dd\
2E\	.	.	4gg\
.	.	.	4aa\
=37	=37	=37	=37
2.D\	1.r	4.dd\	2.ff\
.	.	8cc\	.
.	.	4dd\	.
4D\	.	4a/	4ff\
4C/	.	4cc\	4ee\
4BB/	.	4dd\	4dd\
=38	=38	=38	=38
1.C	4.c\	1.ee	4.cc\
.	8B\	.	8dd\
.	4c\	.	4ee\
.	4C/	.	4ee\
.	4E\	.	4dd\
.	4F\	.	4cc\
=39	=39	=39	=39
2GG/	2G\	4.dd\	2b\
.	.	8cc\	.
2GG/	2GG/	4dd\	2gg\
.	.	4ee\	.
2AA/	2AA/	4cc\	2ee\
.	.	4dd\	.
=40	=40	=40	=40
2BB/	2BB/	4.b\	2dd\
.	.	8b\	.
2C/	2C/	4a/	4cc\
.	.	4g/	4b\
2D\	2D\	2f#/	2a/
=41	=41	=41	=41
1GG	1GG	2.g/	2.b\
.	.	4g/	4b\
2FF/	2FF/	4a/	4cc\
.	.	4b\	4dd\
=42	=42	=42	=42
1EE	2.EE/	4cc\	2ee\
.	.	4g/	.
.	.	4gg\	4dd\
.	4FF/	8ff\L	4cc\
.	.	8ee\J	.
2GG/	2GG/	2dd\	2b\
=43	=43	=43	=43
*met(C)	*met(C)	*met(C)	*met(C)
*M4/4	*M4/4	*M4/4	*M4/4
1C	1C	1ee	1cc
=44	=44	=44	=44
*MM240	*	*	*
1G	1G	1r	1r
=45	=45	=45	=45
2.F#\	2.F#\	1r	1r
4F#\	4F#\	.	.
=46	=46	=46	=46
2G\	2G\	1r	1r
2BB/	2BB/	.	.
=47	=47	=47	=47
2C/	2C/	1r	1r
2D\	2D\	.	.
=48	=48	=48	=48
4GG/	4GG/	1gg	1r
4AA/	4AA/	.	.
4BB/	4BB/	.	.
4C/	4C/	.	.
=49	=49	=49	=49
1D	1D	2.ff#\	4r
.	.	.	4dd\
.	.	.	4a/
.	.	4ff#\	8dd\L
.	.	.	8cc\J
=50	=50	=50	=50
1GG	1GG	2gg\	4b\
.	.	.	4a/
.	.	2b\	4g/
.	.	.	8gg\L
.	.	.	8ff\J
=51	=51	=51	=51
4C/	1r	2cc\	4ee\
4E\	.	.	4gg\
2D\	.	2dd\	4gg\
.	.	.	4ff#\
=52	=52	=52	=52
2G\	1r	4g/	2gg\
.	.	2gg\	.
2G\	.	.	2dd\
.	.	4ff\	.
=53	=53	=53	=53
2A\	4r	2ee\	2.cc\
.	4A\	.	.
4E\	4E\	2ee\	.
8A\L	8A\L	.	4cc#\
8G\J	8G\J	.	.
=54	=54	=54	=54
4F#\	4F#\	2dd\	2dd\
4E\	4E\	.	.
2D\	4D\	2r	2f#/
.	8D/L	.	.
.	8C/J	.	.
=55	=55	=55	=55
2.G\	4BB/	1r	2g/
.	4AA/	.	.
.	4GG/	.	2a/
4F#\	4FF#/	.	.
=56	=56	=56	=56
1G	1GG	2r	4b\
.	.	.	4gg\
.	.	2dd\	4dd\
.	.	.	8gg\L
.	.	.	8ff\J
=57	=57	=57	=57
1A	4r	2.cc#\	1ee
.	4A\	.	.
.	4E\	.	.
.	8A\L	4cc#\	.
.	8G\J	.	.
=58	=58	=58	=58
1D	8F#\L	2dd\	4r
.	8E\	.	.
.	8D\	.	4dd\
.	8C\J	.	.
.	4.D\	2f#/	4a/
.	.	.	4aa\
.	8D\	.	.
=59	=59	=59	=59
4BB/	4BB/	2g/	8gg\L
.	.	.	8ff\
8C/L	8C/L	.	8ee\
8BB/J	8BB/J	.	8dd\J
2AA/	4.AA/	2a/	8cc#\L
.	.	.	8dd\
.	.	.	8ee\
.	8AA/	.	8cc#\J
=60	=60	=60	=60
4BB/	4BB/	4d/	4.dd\
8AA/L	8AA/L	2dd\	.
8GG/J	8GG/J	.	8ee\L
2AA/	2AA/	.	8ff\
.	.	.	8gg\J
.	.	4cc#\	4ee\
=61	=61	=61	=61
1D	1D	4r	1dd
.	.	4dd\	.
.	.	4a/	.
.	.	8dd\L	.
.	.	8cc\J	.
=62	=62	=62	=62
1G	1r	4b\	1r
.	.	4a/	.
.	.	4g/	.
.	.	8gg\L	.
.	.	8ff\J	.
=63	=63	=63	=63
1c	1c	4ee\	1r
.	.	4dd\	.
.	.	8cc\L	.
.	.	8ee\	.
.	.	8dd\	.
.	.	8cc\J	.
=64	=64	=64	=64
2.B\	2.B\	2dd\	4r
.	.	.	4gg\
.	.	2r	4dd\
4B\	4B\	.	8gg\L
.	.	.	8ff\J
=65	=65	=65	=65
2c\	2c\	4r	4.ee\
.	.	4cc\	.
.	.	.	8dd\L
2E\	2E\	4g/	8cc\
.	.	.	8dd\J
.	.	8cc\L	4ee\
.	.	8b\J	.
=66	=66	=66	=66
2F\	2F\	4a/	4dd\
.	.	4aa\	2cc\
2G\	2G\	4dd\	.
.	.	8gg\L	4b\
.	.	8ff\J	.
=67	=67	=67	=67
1C	1C	2ee\	4cc\
.	.	.	4dd\
.	.	2cc\	4ee\
.	.	.	8ff\L
.	.	.	8ee\J
=68	=68	=68	=68
1GG	4r	2.b\	1dd
.	4G\	.	.
.	4D\	.	.
.	8G\L	4b\	.
.	8F\J	.	.
=69	=69	=69	=69
1C	4E\	2cc\	2r
.	4D\	.	.
.	4C/	2e/	4r
.	8c\L	.	4ee\
.	8B\J	.	.
=70	=70	=70	=70
2F\	4A\	2f/	4cc\
.	8d\L	.	8ff\L
.	8c\J	.	8ee\J
4G\	4B\	2g/	4dd\
4C/	4c\	.	[4ee\
=71	=71	=71	=71
2AA/	2A\	2cc\	8ee\L]
.	.	.	8dd\J
.	.	.	4cc\
2GG/	4.G\	2dd\	4b\
.	.	.	[4dd\
.	8F\	.	.
=72	=72	=72	=72
2E\	8E\L	4ee\	4dd\]
.	8D\J	.	.
.	4E\	2gg\	4cc#\
2D\	2D\	.	4dd\
.	.	4ff#\	4a/
=73	=73	=73	=73
1GG	1GG	1gg	1b
=74	=74	=74	=74
4G\	4G\	1r	2r
4A\	4A\	.	.
4B\	4B\	.	2gg\
8c\L	8c\L	.	.
8B\J	8B\J	.	.
=75	=75	=75	=75
4A\	4A\	1r	4.ff#\
4D\	4D\	.	.
.	.	.	8ff#\
2G\	2G\	.	4gg\
.	.	.	4b\
=76	=76	=76	=76
1C	2C/	4ee\	4cc\
.	.	4dd\	4dd\
.	2r	4cc\	4ee\
.	.	8b\L	8dd\L
.	.	8cc\J	8ee\J
=77	=77	=77	=77
2FF/	1r	4dd\	4ff\
.	.	2cc\	4ee\
2GG/	.	.	2dd\
.	.	4b\	.
=78	=78	=78	=78
1C	2r	4cc\	4ee\
.	.	4dd\	4dd\
.	2C/	4ee\	4cc\
.	.	8ff\L	8b\L
.	.	8ee\J	8cc\J
=79	=79	=79	=79
2BB/	4.BB/	4dd\	2dd\
.	.	4b\	.
.	8BB/	.	.
4C/	4C/	8ee\L	2r
.	.	8dd\	.
4EE/	4EE/	8cc\	.
.	.	8b\J	.
=80	=80	=80	=80
4FF/	4FF/	4a/	4aa\
4GG/	4GG/	8b\L	4gg\
.	.	8cc\J	.
2D\	2D\	4dd\	4ff#\
.	.	4cc\	8ee\L
.	.	.	8ff#\J
=81	=81	=81	=81
2G\	1r	4.b\	8gg\L
.	.	.	8dd\J
.	.	.	2gg\
.	.	16cc\LL	.
.	.	16b\JJ	.
2A\	.	8a\L	.
.	.	8ee\	.
.	.	8dd\	4ff#\
.	.	8cc\J	.
=82	=82	=82	=82
4G\	4G\	1b	2gg\
4A\	4A\	.	.
4B\	4B\	.	2dd\
8c\L	8c\L	.	.
8B\J	8B\J	.	.
=83	=83	=83	=83
2A\	4A\	1r	4.cc#\
.	4AA/	.	.
.	.	.	8cc#\
2D\	8D\L	.	4dd\
.	8E\	.	.
.	8D\	.	4f#/
.	8C\J	.	.
=84	=84	=84	=84
4BB/	4BB/	2r	4g/
4FF#/	4FF#/	.	4a/
2GG/	2GG/	2gg\	4b\
.	.	.	8a/L
.	.	.	8g/J
=85	=85	=85	=85
2D\	2D\	4.ff#\	4a/
.	.	.	8dd\L
.	.	8ff#\	8cc\J
2G\	2r	4gg\	4b\
.	.	4b\	8gg\L
.	.	.	8ff\J
=86	=86	=86	=86
2.A\	2r	4cc#\	4ee\
.	.	4dd\	4dd\
.	4.A\	2ee\	4dd\
4G\	.	.	4cc#\
.	8G\	.	.
=87	=87	=87	=87
2F#\	4F#\	4dd\	2dd\
.	8E\L	4cc\	.
.	8F#\J	.	.
2G\	2G\	4b\	4dd\
.	.	8cc\L	4ee\
.	.	8b\J	.
=88	=88	=88	=88
4D\	4D\	2a/	4ff\
4C/	4C/	.	8ee\L
.	.	.	8ff\J
4BB/	4BB/	2dd\	4gg\
8AA/L	8AA/L	.	4ff\
8BB/J	8BB/J	.	.
=89	=89	=89	=89
2C/	2C/	4g/	2ee\
.	.	4a/	.
2GG/	2GG/	4b\	4dd\
.	.	8cc\L	4ee\
.	.	8b\J	.
=90	=90	=90	=90
1D	1D	4a/	4ff#\
.	.	8b\L	2gg\
.	.	8cc\J	.
.	.	4dd\	.
.	.	4a/	4ff#\
=91	=91	=91	=91
0GG	0GG	0b	0gg
==	==	==	==
*-	*-	*-	*-
!!!ENC: Craig Stuart Sapp
!!!END: 2004/12/14/
